X:1
T:Arizona, LM
T:Arizona, LM
T:Robert Henry Earnshaw, 1918
T:Public Domain Courtesy of the Cyber Hymnal™
C:Robert Henry Earnshaw, 1918
Z:Public Domain
Z:Courtesy of the Cyber Hymnal™
%%score ( 1 2 ) ( 3 4 )
L:1/8
M:3/4
K:F
V:1 treble 
V:2 treble 
V:3 bass 
V:4 bass 
V:1
 [FA]2 [FA]2 [FA]2 | [FA]4 [FA]2 | [Gc]4 [EB]2 | [FA]6 | F2 [CF]2 [CE]2 | (F3 G) [FA]2 | %6
 [DG]4 [DF]2 | [EG]6 | [FA]2 [FA]2 [GA]2 | [FA]4 [FA]2 | [Fd]4 [^Fc]2 | [GB]6 | [EG]2 [Fc]2 [GB]2 | %13
 [FA]4 [DF]2 | [CF]4 [CE]2 | [CF]6 |] %16
V:2
 x6 | x6 | x6 | x6 | F2 x4 | C4 x2 | x6 | x6 | x6 | x6 | x6 | x6 | x6 | x6 | x6 | x6 |] %16
V:3
 [F,C]2 [F,C]2 [F,C]2 | [B,,D]4 [B,,D]2 | (G,2 C2) [C,C]2 | [F,C]6 | [B,D]2 [A,C]2 [G,B,]2 | %5
 (A,3 B,) [F,C]2 | [B,,B,]4 [D,A,]2 | [C,C]6 | [F,C]2 [F,C]2 [E,^C]2 | D4 [F,_E]2 | [B,D]4 [A,D]2 | %11
 [G,D]6 | [C,C]2 [D,C]2 [E,C]2 | [F,C]4 (B,A,) | (G,3 A,) [C,B,]2 | [F,A,]6 |] %16
V:4
 x6 | x6 | E,4 x2 | x6 | x6 | F,4 x2 | x6 | x6 | x6 | (D,2 F,2) x2 | x6 | x6 | x6 | x4 B,,2 | %14
 C,4 x2 | x6 |] %16

